static/assets/svg/human/humanClothes/female_shirt6_stickers/female_shirt6_sticker17.svg

<svg class="shirtOverlay" width="86" height="380" viewBox="202.715 584.407 86.593 380.048" preserveAspectRatio="xMidYMax" xmlns="http://www.w3.org/2000/svg" xmlns:xlink="http://www.w3.org/1999/xlink"><defs><pattern id="a" width="20" height="20" patternUnits="userSpaceOnUse" viewBox="0 0 100 100"><path d="M453.72 202.5l-181.88.031c0 67.31 36.619 126.02 90.969 157.47.062-62.793 32.614-123.85 90.906-157.5z" fill="red" transform="matrix(.5593 0 0 .32389 -150.651 -66.353)"/><path d="M544.68 359.99L453.72 202.5c-58.292 33.655-90.826 94.722-90.888 157.52 54.412-31.343 123.56-33.678 181.85-.023z" fill="#ff0" transform="matrix(.5593 0 0 .32389 -150.651 -66.353)"/><path d="M453.73 517.51l90.91-157.52c-58.292-33.655-127.44-31.296-181.86.047 54.35 31.45 90.946 90.167 90.946 157.48z" fill="#0f0" transform="matrix(.5593 0 0 .32389 -150.651 -66.353)"/><path d="M271.9 517.55l181.87-.031c0-67.31-36.619-126.02-90.969-157.47-.062 62.793-32.614 123.85-90.906 157.5z" fill="#0ff" transform="matrix(.5593 0 0 .32389 -150.651 -66.353)"/><path d="M180.98 360.04l90.965 157.49c58.292-33.655 90.826-94.722 90.888-157.52-54.412 31.343-123.56 33.678-181.85.023z" fill="#00f" transform="matrix(.5593 0 0 .32389 -150.651 -66.353)"/><path d="M271.84 202.56l-90.91 157.52c58.292 33.655 127.44 31.296 181.86-.047-54.35-31.45-90.95-90.16-90.95-157.47z" fill="#f0f" transform="matrix(.5593 0 0 .32389 -150.651 -66.353)"/></pattern><pattern id="b" patternTransform="translate(235.335 723.187)" xlink:href="#a"/><pattern id="c" patternTransform="matrix(1 0 0 1 254.973 738.255)" xlink:href="#a"/></defs><path class="clothes" fill="none" d="M202.715 584.431h86.593V700.24h-86.593z"/><path class="clothes" fill="none" d="M-403.988 499.579h1300v550h-1300z"/><path d="M232.233 728.924c0 2.636 26.253-1.379 26.444-.615 4.098 16.399-26.709 7.379-27.059 7.379" stroke="#000" fill="url(#b)"/><path d="M256.832 727.694c-3.03 0-4.66 7.639-1.845 10.454 3.31 3.31 5.144-8.385 2.46-11.069-3.293-3.293-5.814 9.783-6.765 11.684-4.269 8.539 1.021 25.005 6.15 30.133 2.531 2.532 12.986.072 10.454-2.46-2.72-2.72-6.5-4.391-8.609-8.609-.956-1.912-2.46-20.909-2.46-20.909s14.712 18.761 15.989 20.294c5.019 6.022 2.82 3.33 8.609-2.46.583-.582-22.138-18.113-22.138-19.064" stroke="#000" fill="url(#c)"/></svg>

<svg class="shirtOverlay" width="86" height="380" viewBox="202.715 584.407 86.5933 380.048" preserveAspectRatio="xMidYMax" xmlns="http://www.w3.org/2000/svg" xmlns:xlink="http://www.w3.org/1999/xlink">
  <defs id="svgEditorDefs">
    <path id="svgEditorClosePathDefs" fill="black" style="stroke-width: 0px; stroke: none;" class="clothes"/>
    <pattern id="pattern-0" x="0" y="0" width="20" height="20" patternUnits="userSpaceOnUse" viewBox="0 0 100 100">
      <g transform="matrix(0.322935, 0, 0, 0.187013, -63.988571, -16.540001)">
        <path id="path2983" style="stroke:#ff0000;stroke-width:2;display:none;fill:none" d="m329.69 144.95s-9.3692-18.562-37.653-6.364"/>
        <path id="path2983-8" style="stroke:#ff0000;stroke-width:2;display:none;fill:none" d="m326.89 144.95s-9.3692-18.562-37.653-6.364"/>
        <g id="g3195" transform="matrix(1.7319 0 0 1.7319 -268.36 -266.36)">
          <path id="path2860" style="fill:#ff0000" d="m453.72 202.5-181.88 0.03125c9e-13 67.31 36.619 126.02 90.969 157.47 0.061636-62.793 32.614-123.85 90.906-157.5z"/>
          <path id="path3185" style="fill:#ffff00" d="m544.68 359.99-90.96-157.49c-58.292 33.655-90.826 94.722-90.888 157.52 54.412-31.343 123.56-33.678 181.85-0.022878z"/>
          <path id="path3187" style="fill:#00ff00" d="m453.73 517.51 90.91-157.52c-58.292-33.655-127.44-31.296-181.86 0.046873 54.35 31.45 90.946 90.167 90.946 157.48z"/>
          <path id="path3189" style="fill:#00ffff" d="m271.9 517.55 181.87-0.03125c-9e-13 -67.31-36.619-126.02-90.969-157.47-0.061636 62.793-32.614 123.85-90.906 157.5z"/>
          <path id="path3191" style="fill:#0000ff" d="m180.98 360.04 90.965 157.49c58.292-33.655 90.826-94.722 90.888-157.52-54.412 31.343-123.56 33.678-181.85 0.022878z"/>
          <path id="path3193" style="fill:#ff00ff" d="m271.84 202.56-90.91 157.52c58.292 33.655 127.44 31.296 181.86-0.046873-54.35-31.45-90.95-90.16-90.95-157.47z"/>
        </g>
      </g>
    </pattern>
    <pattern id="pattern-0-0" patternTransform="matrix(1, 0, 0, 1, 235.335144, 723.186768)" xlink:href="#pattern-0"/>
    <pattern id="pattern-0-1" patternTransform="matrix(0.999999, 0, 0, 1, 254.972855, 738.254883)" xlink:href="#pattern-0"/>
  </defs>
  <rect id="svgEditorBackground" x="202.71499633789062" y="584.4310302734375" width="86.59329986572266" height="115.80899810791016" style="fill: none; stroke: none;" class="clothes"/>
  <rect id="rect-1" x="-403.988" y="499.579" width="1300" height="550" style="fill: none; stroke: none;" class="clothes"/>
  <path d="M 232.233 728.924 C 232.233 731.56 258.486 727.545 258.677 728.309 C 262.775 744.708 231.968 735.688 231.618 735.688" style="stroke: rgb(0, 0, 0); fill: url(#pattern-0-0);"/>
  <path d="M 256.832 727.694 C 253.802 727.694 252.172 735.333 254.987 738.148 C 258.297 741.458 260.131 729.763 257.447 727.079 C 254.154 723.786 251.633 736.862 250.682 738.763 C 246.413 747.302 251.703 763.768 256.832 768.896 C 259.363 771.428 269.818 768.968 267.286 766.436 C 264.566 763.716 260.786 762.045 258.677 757.827 C 257.721 755.915 256.217 736.918 256.217 736.918 C 256.217 736.918 270.929 755.679 272.206 757.212 C 277.225 763.234 275.026 760.542 280.815 754.752 C 281.398 754.17 258.677 736.639 258.677 735.688" style="stroke: rgb(0, 0, 0); fill: url(#pattern-0-1);"/>
</svg>
